X:1
T:Title
%%score ( 1 2 ) 3
L:1/8
Q:1/4=80
M:4/4
K:Db
V:1 treble nm="Strings 1, Treble"
V:2 treble 
V:3 bass nm="Strings 1, Bass"
V:1
 z4 z2 [DF][EG] | [FA][FA][FA][FA] [GB][FA][Fd][Ge] | [Af][Af][Af][Ge] [Ge][Fd][Fd][Ac] | %3
w: 1.~We~ are~|in~ the~ har vest~ time,~ * When~ the~|fields~ in~ eve ry~ clime~ * For~ the~|
 [GB][Ac][Bd][GB] [GB][FA] [Dd]2 | [DF]2 [DE]2 [CE]2 [DF][EG] | [FA][FA][FA][FA] [GB][FA][Fd][Ge] | %6
w: reap ers~ flam ing~ sic * kle~|read y~ stand;~ See~ the~|wav ing~ gold en~ grain,~ * O ver~|
 [Af][Af][Af][Ge] [Ge][Fd][Fd][Ac] | [GB][Ac][Bd][GB] [GB][FA] [Dd]2 | %8
w: val ley,~ hill,~ and~ plain,~ * Let~ the~|glo rious~ gos pel~ truth~ * reach~|
 [DF]2 [CE]2 D2[Q:1/4=80] [DF][EG][Q:1/4=12] | [FA]4- [FA][FA][GB][FA] | [Fd]6 [DF][DF] | G4 z4 | %12
w: eve ry~ land.~ * *||||
 [DF]6 [Fd][Ge] | [Af][Ge][Fd][GB] [FA][DF][FA][Ad] | c2- [=Gc-]2 [_Gc]2 [GB][GA] | %15
w: |||
 [FA][Fd][Fd][Fd] [Fd]2 [FA][FA] | [GB][Bd][Ac][GB] [FA]2 [FA][FA] | [Fd][GA][FA][EG] [DF]2 [CE]2 | %18
w: |||
 D6 z2 |] %19
w: |
V:2
 x8 | x8 | x8 | x8 | x8 | x8 | x8 | x8 | x8 | x8 | x8 | C2 D2 [EG]E[CB][CA] | x8 | x8 | A2 z2 z4 | %15
 x8 | x8 | x8 | x8 |] %19
V:3
 z4 z2 [D,A,][D,A,] | [D,D][D,D][D,D][D,D] [D,D]2 [D,A,][D,A,] | %2
 [D,D][D,D][D,D][D,D] [D,A,]2 [D,A,][F,D] | [G,D][G,D][G,D][G,D] [D,D]2 [F,A,]2 | %4
 A,2 [=G,B,]2 A,_G,[F,A,][E,A,] | [D,D][D,D][D,D][D,D] [D,D]2 [D,A,][D,A,] | %6
 [D,D][D,D][D,D][D,D] [D,A,]2 [D,A,][F,D] | [G,D][G,D][G,D][G,D] [D,D]2 [F,A,]2 | %8
 A,2 [A,,G,]2 [D,F,]2 [D,A,][D,A,] | [D,D]2 [D,D]2 [D,D]2 [D,D]2 | %10
 [D,A,][D,A,][D,A,][D,A,] [D,A,]2 [D,A,][D,A,] | [A,,A,]2 [B,,A,]2 [C,A,]2 [A,,A,]2 | %12
 [D,A,][D,A,][D,A,][D,A,] [D,A,]2 [D,A,][D,A,] | [D,D][D,D][D,D][D,D] [D,D][D,A,][D,D][F,D] | %14
 [A,E]2 [B,E]2 [A,E]2 [A,,C][A,,C] | [D,D][D,A,][D,A,][D,A,] [D,A,]2 [D,D][D,D] | %16
 [G,D][G,D][G,D][G,D] [D,D]2 [D,D][D,D] | [D,A,][E,C][F,D][G,B,] A,2 [A,,G,]2 | [D,F,]6 z2 |] %19

